X: 21283
M: 6/8
L: 1/8
K: D
V: 1 name="3"
d/e/ |\
fzA fzA | fgf efe | dzc dzf | e2(3(d/c/B/) A2d/e/ |\
fzA fzA | fgf efe | dcB dcB | f3 z2 H|]
|: F/G/ |\


